symbols/web/score/materialsymbolsrounded/score_gradN25_20px.svg

<svg xmlns="http://www.w3.org/2000/svg" height="20" width="20"><path d="M4.333 17.312q-.687 0-1.166-.479-.479-.479-.479-1.166V4.333q0-.687.479-1.166.479-.479 1.166-.479h11.334q.687 0 1.166.479.479.479.479 1.166v11.334q0 .687-.479 1.166-.479.479-1.166.479Zm6.479-3.479 4.855-4.875V4.333H4.333v9.521L7 11.188q.125-.126.281-.198.157-.073.302-.073.146 0 .313.073.166.072.271.198ZM10.646 10q-.25 0-.438-.177-.187-.177-.187-.448V5.729q0-.25.177-.416.177-.167.448-.167.25 0 .416.167.167.166.167.416v3.688q0 .25-.167.416-.166.167-.416.167Zm2.312 0q-.166 0-.312-.073t-.229-.219l-1.188-2.166 1.188-2.104q.083-.146.218-.219.136-.073.323-.073.334 0 .511.292.177.291.01.604l-.875 1.479.875 1.583q.188.313.011.604-.178.292-.532.292Zm-6.187 0q-.333 0-.573-.24-.24-.239-.24-.572V7.771q0-.333.24-.573.24-.24.573-.24h1.187v-.604H6.542q-.23 0-.407-.177-.177-.177-.177-.448 0-.25.177-.416.177-.167.448-.167h1.792q.333 0 .573.239.24.24.24.573v1.396q0 .334-.24.573-.24.24-.573.24H7.167v.625h1.437q.25 0 .417.166.167.167.167.417 0 .25-.167.437-.167.188-.417.188Zm.812 3.062L5 15.667h10.667v-4.271l-4.355 4.354h-1.041Zm-3.25 1.126v.833-.209 1.063-4.479.25V10.26v.178-6.105 9.521-.25V14.188Z"/></svg>

<svg xmlns="http://www.w3.org/2000/svg" height="20" width="20"><path d="M4.333 17.312Q3.646 17.312 3.167 16.833Q2.688 16.354 2.688 15.667V4.333Q2.688 3.646 3.167 3.167Q3.646 2.688 4.333 2.688H15.667Q16.354 2.688 16.833 3.167Q17.312 3.646 17.312 4.333V15.667Q17.312 16.354 16.833 16.833Q16.354 17.312 15.667 17.312ZM10.812 13.833 15.667 8.958V4.333Q15.667 4.333 15.667 4.333Q15.667 4.333 15.667 4.333H4.333Q4.333 4.333 4.333 4.333Q4.333 4.333 4.333 4.333V13.854L7 11.188Q7.125 11.062 7.281 10.99Q7.438 10.917 7.583 10.917Q7.729 10.917 7.896 10.99Q8.062 11.062 8.167 11.188ZM10.646 10Q10.396 10 10.208 9.823Q10.021 9.646 10.021 9.375V5.729Q10.021 5.479 10.198 5.313Q10.375 5.146 10.646 5.146Q10.896 5.146 11.062 5.313Q11.229 5.479 11.229 5.729V9.417Q11.229 9.667 11.062 9.833Q10.896 10 10.646 10ZM12.958 10Q12.792 10 12.646 9.927Q12.5 9.854 12.417 9.708L11.229 7.542L12.417 5.438Q12.5 5.292 12.635 5.219Q12.771 5.146 12.958 5.146Q13.292 5.146 13.469 5.438Q13.646 5.729 13.479 6.042L12.604 7.521L13.479 9.104Q13.667 9.417 13.49 9.708Q13.312 10 12.958 10ZM6.771 10Q6.438 10 6.198 9.76Q5.958 9.521 5.958 9.188V7.771Q5.958 7.438 6.198 7.198Q6.438 6.958 6.771 6.958H7.958V6.354H6.542Q6.312 6.354 6.135 6.177Q5.958 6 5.958 5.729Q5.958 5.479 6.135 5.313Q6.312 5.146 6.583 5.146H8.375Q8.708 5.146 8.948 5.385Q9.188 5.625 9.188 5.958V7.354Q9.188 7.688 8.948 7.927Q8.708 8.167 8.375 8.167H7.167V8.792H8.604Q8.854 8.792 9.021 8.958Q9.188 9.125 9.188 9.375Q9.188 9.625 9.021 9.812Q8.854 10 8.604 10ZM7.583 13.062 5 15.667Q5 15.667 5 15.667Q5 15.667 5 15.667H15.667Q15.667 15.667 15.667 15.667Q15.667 15.667 15.667 15.667V11.396L11.312 15.75Q11.208 15.75 11.073 15.75Q10.938 15.75 10.792 15.75Q10.646 15.75 10.51 15.75Q10.375 15.75 10.271 15.75ZM4.333 14.188Q4.333 14.792 4.333 15.021Q4.333 15.25 4.333 14.812V15.667Q4.333 15.667 4.333 15.667Q4.333 15.667 4.333 15.667Q4.333 15.771 4.333 15.823Q4.333 15.875 4.333 15.875Q4.333 15.875 4.333 15.823Q4.333 15.771 4.333 15.667Q4.333 15.667 4.333 15.667Q4.333 15.667 4.333 15.667V11.396V11.646Q4.333 11.542 4.333 11.396Q4.333 11.25 4.333 11.062Q4.333 10.5 4.333 10.26Q4.333 10.021 4.333 10.438V8.958V4.333Q4.333 4.333 4.333 4.333Q4.333 4.333 4.333 4.333Q4.333 4.333 4.333 4.333Q4.333 4.333 4.333 4.333V13.854V13.604Q4.333 13.729 4.333 13.875Q4.333 14.021 4.333 14.188Z"/></svg>
